icc/Fuji Film 50% (sRGB)/Astia 50%.costyle
<?xml version="1.0"?>
<SL Engine="1300">
	<E K="ICCProfile" V="Fuji LUT - astia_sRGB (50%).icm" />
	<E K="Name" V="Astia 50%" />
	<E K="StyleSource" V="Styles" />
	<E K="UUID" V="A233E422-FFA9-4BB3-BE50-78DDBD83F4A1" />
</SL>
