icc/Fuji Film 50% (sRGB)/Bleach Bypass 50%.costyle
<?xml version="1.0"?>
<SL Engine="1300">
	<E K="ICCProfile" V="Fuji LUT - bleach bypass_sRGB (50%).icm" />
	<E K="Name" V="Bleach Bypass 50%" />
	<E K="StyleSource" V="Styles" />
	<E K="UUID" V="45E74084-16EC-4A70-890E-46DE7E4112B3" />
</SL>
