icc/Fuji Film 50% (sRGB)/Classic Chrome 50%.costyle
<?xml version="1.0"?>
<SL Engine="1300">
	<E K="ICCProfile" V="Fuji LUT - classic chrome_sRGB (50%).icm" />
	<E K="Name" V="Classic Chrome 50%" />
	<E K="StyleSource" V="Styles" />
	<E K="UUID" V="21AF0644-2D9E-44B2-AE8B-DA430D573593" />
</SL>
