icc/Fuji Film 50% (sRGB)/Classic Neg 50%.costyle
<?xml version="1.0"?>
<SL Engine="1300">
	<E K="ICCProfile" V="Fuji LUT - classic neg_sRGB (50%).icm" />
	<E K="Name" V="Classic Neg 50%" />
	<E K="StyleSource" V="Styles" />
	<E K="UUID" V="7A84DE4A-08FA-4A55-A795-136D158CF08E" />
</SL>
