icc/Fuji Film 50% (sRGB)/Eterna 50%.costyle
<?xml version="1.0"?>
<SL Engine="1300">
	<E K="ICCProfile" V="Fuji LUT - eterna_sRGB (50%).icm" />
	<E K="Name" V="Eterna 50%" />
	<E K="StyleSource" V="Styles" />
	<E K="UUID" V="8F029342-34C9-49C3-9C88-CBC617A030AC" />
</SL>
