icc/Fuji Film 50% (sRGB)/Nostalgic Neg 50%.costyle
<?xml version="1.0"?>
<SL Engine="1300">
	<E K="ICCProfile" V="Fuji LUT - nostalgic neg_sRGB (50%).icm" />
	<E K="Name" V="Nostalgic Neg 50%" />
	<E K="StyleSource" V="Styles" />
	<E K="UUID" V="320DE3E7-0E3F-45DE-A929-3997E2B2AF14" />
</SL>
