icc/Fuji Film 50% (sRGB)/Pro Neg Std 50%.costyle
<?xml version="1.0"?>
<SL Engine="1300">
	<E K="ICCProfile" V="Fuji LUT - pro neg std_sRGB (50%).icm" />
	<E K="Name" V="Pro Neg Std 50%" />
	<E K="StyleSource" V="Styles" />
	<E K="UUID" V="86679446-8186-4198-8479-64286C6AABCA" />
</SL>
