icc/Fuji Film 50% (sRGB)/Pro Neg Hi 50%.costyle
<?xml version="1.0"?>
<SL Engine="1300">
	<E K="ICCProfile" V="Fuji LUT - pro neg hi_sRGB (50%).icm" />
	<E K="Name" V="Pro Neg Hi 50%" />
	<E K="StyleSource" V="Styles" />
	<E K="UUID" V="94B4CD21-737D-4B1B-8D68-B761EF1C3267" />
</SL>
