icc/Fuji Film 50% (sRGB)/Provia 50%.costyle
<?xml version="1.0"?>
<SL Engine="1300">
	<E K="ICCProfile" V="Fuji LUT - provia_sRGB (50%).icm" />
	<E K="Name" V="Provia 50%" />
	<E K="StyleSource" V="Styles" />
	<E K="UUID" V="63E7F812-CB09-4554-BC3B-2FF6E8DE933D" />
</SL>
