icc/Fuji Film 50% (sRGB)/Reala Ace 50%.costyle
<?xml version="1.0"?>
<SL Engine="1300">
	<E K="ICCProfile" V="Fuji LUT - reala ace_sRGB (50%).icm" />
	<E K="Name" V="Reala Ace 50%" />
	<E K="StyleSource" V="Styles" />
	<E K="UUID" V="AA9D467D-D817-49FA-8FBF-04479EC08A2E" />
</SL>
