icc/Fuji Film 50% (sRGB)/Velvia 50%.costyle
<?xml version="1.0"?>
<SL Engine="1300">
	<E K="ICCProfile" V="Fuji LUT - velvia_sRGB (50%).icm" />
	<E K="Name" V="Velvia 50%" />
	<E K="StyleSource" V="Styles" />
	<E K="UUID" V="F2F68FA0-1E43-413A-86E6-A917E601ED89" />
</SL>
