icc/Fuji Film 25% (sRGB)/Astia 25%.costyle
<?xml version="1.0"?>
<SL Engine="1300">
	<E K="ICCProfile" V="Fuji LUT - astia_sRGB (25%).icm" />
	<E K="Name" V="Astia 25%" />
	<E K="StyleSource" V="Styles" />
	<E K="UUID" V="DC3F0470-EBA3-4B35-B14F-CF152860DF35" />
</SL>
