icc/Fuji Film 25% (sRGB)/Bleach Bypass 25%.costyle
<?xml version="1.0"?>
<SL Engine="1300">
	<E K="ICCProfile" V="Fuji LUT - bleach bypass_sRGB (25%).icm" />
	<E K="Name" V="Bleach Bypass 25%" />
	<E K="StyleSource" V="Styles" />
	<E K="UUID" V="73DEE9A6-7EF3-4FFF-93CB-4D2DB5649A62" />
</SL>
