icc/Fuji Film 25% (sRGB)/Classic Neg 25%.costyle
<?xml version="1.0"?>
<SL Engine="1300">
	<E K="ICCProfile" V="Fuji LUT - classic neg_sRGB (25%).icm" />
	<E K="Name" V="Classic Neg 25%" />
	<E K="StyleSource" V="Styles" />
	<E K="UUID" V="9DDC7B54-AD57-4904-B0B7-D9183934F86F" />
</SL>
