icc/Fuji Film 25% (sRGB)/Classic Chrome 25%.costyle
<?xml version="1.0"?>
<SL Engine="1300">
	<E K="ICCProfile" V="Fuji LUT - classic chrome_sRGB (25%).icm" />
	<E K="Name" V="Classic Chrome 25%" />
	<E K="StyleSource" V="Styles" />
	<E K="UUID" V="BDBB0EE8-B1B4-40C4-A006-D60215CCFA9A" />
</SL>
