icc/Fuji Film 25% (sRGB)/Eterna 25%.costyle
<?xml version="1.0"?>
<SL Engine="1300">
	<E K="ICCProfile" V="Fuji LUT - eterna_sRGB (25%).icm" />
	<E K="Name" V="Eterna 25%" />
	<E K="StyleSource" V="Styles" />
	<E K="UUID" V="1B6F073D-E8E0-4D8A-B513-42CFA4C75157" />
</SL>
