icc/Fuji Film 25% (sRGB)/Nostalgic Neg 25%.costyle
<?xml version="1.0"?>
<SL Engine="1300">
	<E K="ICCProfile" V="Fuji LUT - nostalgic neg_sRGB (25%).icm" />
	<E K="Name" V="Nostalgic Neg 25%" />
	<E K="StyleSource" V="Styles" />
	<E K="UUID" V="4DA17E4B-4820-4DB8-B9D4-4A655F2A65AB" />
</SL>
