icc/Fuji Film 25% (sRGB)/Pro Neg Hi 25%.costyle
<?xml version="1.0"?>
<SL Engine="1300">
	<E K="ICCProfile" V="Fuji LUT - pro neg hi_sRGB (25%).icm" />
	<E K="Name" V="Pro Neg Hi 25%" />
	<E K="StyleSource" V="Styles" />
	<E K="UUID" V="814DEBAC-A521-4AC9-8BE0-1A3A6A13B367" />
</SL>
