icc/Fuji Film 25% (sRGB)/Pro Neg Std 25%.costyle
<?xml version="1.0"?>
<SL Engine="1300">
	<E K="ICCProfile" V="Fuji LUT - pro neg std_sRGB (25%).icm" />
	<E K="Name" V="Pro Neg Std 25%" />
	<E K="StyleSource" V="Styles" />
	<E K="UUID" V="4077B2D4-DF4A-4FBB-98F1-D1DE2770CDA1" />
</SL>
