icc/Fuji Film 25% (sRGB)/Provia 25%.costyle
<?xml version="1.0"?>
<SL Engine="1300">
	<E K="ICCProfile" V="Fuji LUT - provia_sRGB (25%).icm" />
	<E K="Name" V="Provia 25%" />
	<E K="StyleSource" V="Styles" />
	<E K="UUID" V="A4FC4F09-EC18-4C80-9F51-A1172366BFAE" />
</SL>
