icc/Fuji Film 25% (sRGB)/Reala Ace 25%.costyle
<?xml version="1.0"?>
<SL Engine="1300">
	<E K="ICCProfile" V="Fuji LUT - reala ace_sRGB (25%).icm" />
	<E K="Name" V="Reala Ace 25%" />
	<E K="StyleSource" V="Styles" />
	<E K="UUID" V="64BD1665-FFAC-47D1-834F-3C7FB83655A6" />
</SL>
