icc/Fuji Film 25% (sRGB)/Velvia 25%.costyle
<?xml version="1.0"?>
<SL Engine="1300">
	<E K="ICCProfile" V="Fuji LUT - velvia_sRGB (25%).icm" />
	<E K="Name" V="Velvia 25%" />
	<E K="StyleSource" V="Styles" />
	<E K="UUID" V="44EB91CA-5E9D-4B14-9574-D2D1E644378F" />
</SL>
