icc/Fuji Film (DisplayP3)/Astia.costyle
<?xml version="1.0"?>
<SL Engine="1300">
	<E K="ICCProfile" V="Fuji LUT - astia_DisplayP3.icm" />
	<E K="Name" V="Astia" />
	<E K="StyleSource" V="Styles" />
	<E K="UUID" V="168F9CBB-508C-42EA-A07D-C8917E859A05" />
</SL>
