icc/Fuji Film (DisplayP3)/Bleach Bypass.costyle
<?xml version="1.0"?>
<SL Engine="1300">
	<E K="ICCProfile" V="Fuji LUT - bleach bypass_DisplayP3.icm" />
	<E K="Name" V="Bleach Bypass" />
	<E K="StyleSource" V="Styles" />
	<E K="UUID" V="019BA208-257A-4B3D-BDF8-A6FBD3667810" />
</SL>
