icc/Fuji Film (DisplayP3)/Classic Chrome.costyle
<?xml version="1.0"?>
<SL Engine="1300">
	<E K="ICCProfile" V="Fuji LUT - classic chrome_DisplayP3.icm" />
	<E K="Name" V="Classic Chrome" />
	<E K="StyleSource" V="Styles" />
	<E K="UUID" V="D09DC067-1047-47A8-9D60-3BAECDC67A95" />
</SL>
