icc/Fuji Film (DisplayP3)/Classic Neg.costyle
<?xml version="1.0"?>
<SL Engine="1300">
	<E K="ICCProfile" V="Fuji LUT - classic neg_DisplayP3.icm" />
	<E K="Name" V="Classic Neg" />
	<E K="StyleSource" V="Styles" />
	<E K="UUID" V="581C27C0-71AE-4F4A-9B0B-1531BDFAF3DA" />
</SL>
