icc/Fuji Film (DisplayP3)/Eterna.costyle
<?xml version="1.0"?>
<SL Engine="1300">
	<E K="ICCProfile" V="Fuji LUT - eterna_DisplayP3.icm" />
	<E K="Name" V="Eterna" />
	<E K="StyleSource" V="Styles" />
	<E K="UUID" V="10948DCF-966B-48AF-95C2-3E0BEDF921E0" />
</SL>
