icc/Fuji Film (DisplayP3)/Nostalgic Neg.costyle
<?xml version="1.0"?>
<SL Engine="1300">
	<E K="ICCProfile" V="Fuji LUT - nostalgic neg_DisplayP3.icm" />
	<E K="Name" V="Nostalgic Neg" />
	<E K="StyleSource" V="Styles" />
	<E K="UUID" V="71679751-F079-45C9-9577-0349DE7D5FE0" />
</SL>
