icc/Fuji Film (DisplayP3)/Pro Neg Hi.costyle
<?xml version="1.0"?>
<SL Engine="1300">
	<E K="ICCProfile" V="Fuji LUT - pro neg hi_DisplayP3.icm" />
	<E K="Name" V="Pro Neg Hi" />
	<E K="StyleSource" V="Styles" />
	<E K="UUID" V="8EFBD600-F04B-42A8-83D4-91507019C9C3" />
</SL>
