icc/Fuji Film (DisplayP3)/Pro Neg Std.costyle
<?xml version="1.0"?>
<SL Engine="1300">
	<E K="ICCProfile" V="Fuji LUT - pro neg std_DisplayP3.icm" />
	<E K="Name" V="Pro Neg Std" />
	<E K="StyleSource" V="Styles" />
	<E K="UUID" V="8ED2ABCD-8FCA-4D98-AA8E-8E4C025DACFB" />
</SL>
