icc/Fuji Film (DisplayP3)/Provia.costyle
<?xml version="1.0"?>
<SL Engine="1300">
	<E K="ICCProfile" V="Fuji LUT - provia_DisplayP3.icm" />
	<E K="Name" V="Provia" />
	<E K="StyleSource" V="Styles" />
	<E K="UUID" V="C1711FC5-2221-4623-B3F9-99AF5764B1C6" />
</SL>
