icc/Fuji Film (DisplayP3)/Reala Ace.costyle
<?xml version="1.0"?>
<SL Engine="1300">
	<E K="ICCProfile" V="Fuji LUT - reala ace_DisplayP3.icm" />
	<E K="Name" V="Reala Ace" />
	<E K="StyleSource" V="Styles" />
	<E K="UUID" V="3035ECA3-0F31-4BF2-B478-A881016D97F6" />
</SL>
