icc/Fuji Film (DisplayP3)/Velvia.costyle
<?xml version="1.0"?>
<SL Engine="1300">
	<E K="ICCProfile" V="Fuji LUT - velvia_DisplayP3.icm" />
	<E K="Name" V="Velvia" />
	<E K="StyleSource" V="Styles" />
	<E K="UUID" V="373A2CD4-7F20-42D9-AF64-E02442D90961" />
</SL>
