icc/Fuji Conversions/Provia → Nostalgic Neg (sRGB).costyle
<?xml version="1.0"?>
<SL Engine="1300">
	<E K="ICCProfile" V="Fuji Conv - Provia to Nostalgic Neg sRGB.icm" />
	<E K="Name" V="Provia → Nostalgic Neg (sRGB)" />
	<E K="StyleSource" V="Styles" />
	<E K="UUID" V="161B3353-3343-421E-AB88-96799EE9B67C" />
</SL>
