icc/Fuji Conversions/Provia → Bleach Bypass (sRGB).costyle
<?xml version="1.0"?>
<SL Engine="1300">
	<E K="ICCProfile" V="Fuji Conv - Provia to Bleach Bypass sRGB.icm" />
	<E K="Name" V="Provia → Bleach Bypass (sRGB)" />
	<E K="StyleSource" V="Styles" />
	<E K="UUID" V="947686A4-266C-456B-94A9-0510EB43ED6E" />
</SL>
