icc/Fuji Conversions/Provia → Nostalgic Neg (DisplayP3).costyle
<?xml version="1.0"?>
<SL Engine="1300">
	<E K="ICCProfile" V="Fuji Conv - Provia to Nostalgic Neg DisplayP3.icm" />
	<E K="Name" V="Provia → Nostalgic Neg (DisplayP3)" />
	<E K="StyleSource" V="Styles" />
	<E K="UUID" V="CD1AEF20-6A9F-43DF-955C-B8EC7756CB45" />
</SL>
