icc/Fuji Conversions/Provia → Classic Neg (sRGB).costyle
<?xml version="1.0"?>
<SL Engine="1300">
	<E K="ICCProfile" V="Fuji Conv - Provia to Classic Neg sRGB.icm" />
	<E K="Name" V="Provia → Classic Neg (sRGB)" />
	<E K="StyleSource" V="Styles" />
	<E K="UUID" V="696A7E75-C711-4794-AAE8-BC76E79820E3" />
</SL>
