icc/Fuji Conversions/Provia → Bleach Bypass (DisplayP3).costyle
<?xml version="1.0"?>
<SL Engine="1300">
	<E K="ICCProfile" V="Fuji Conv - Provia to Bleach Bypass DisplayP3.icm" />
	<E K="Name" V="Provia → Bleach Bypass (DisplayP3)" />
	<E K="StyleSource" V="Styles" />
	<E K="UUID" V="1524AD8E-049D-40DE-BF86-B85FF914BFF3" />
</SL>
