icc/Fuji Conversions/Provia → Classic Neg (DisplayP3).costyle
<?xml version="1.0"?>
<SL Engine="1300">
	<E K="ICCProfile" V="Fuji Conv - Provia to Classic Neg DisplayP3.icm" />
	<E K="Name" V="Provia → Classic Neg (DisplayP3)" />
	<E K="StyleSource" V="Styles" />
	<E K="UUID" V="E8EB1E74-018A-43E8-A164-7B3E05E6B9F7" />
</SL>
