icc/Fuji Film 75% (sRGB)/Astia 75%.costyle
<?xml version="1.0"?>
<SL Engine="1300">
	<E K="ICCProfile" V="Fuji LUT - astia_sRGB (75%).icm" />
	<E K="Name" V="Astia 75%" />
	<E K="StyleSource" V="Styles" />
	<E K="UUID" V="A40845F7-2D57-4EDC-96DF-BCE341BDCBBA" />
</SL>
