icc/Fuji Film 75% (sRGB)/Bleach Bypass 75%.costyle
<?xml version="1.0"?>
<SL Engine="1300">
	<E K="ICCProfile" V="Fuji LUT - bleach bypass_sRGB (75%).icm" />
	<E K="Name" V="Bleach Bypass 75%" />
	<E K="StyleSource" V="Styles" />
	<E K="UUID" V="51A4BCD9-BFA4-4B55-8BAB-137512E42221" />
</SL>
