icc/Fuji Film 75% (sRGB)/Classic Neg 75%.costyle
<?xml version="1.0"?>
<SL Engine="1300">
	<E K="ICCProfile" V="Fuji LUT - classic neg_sRGB (75%).icm" />
	<E K="Name" V="Classic Neg 75%" />
	<E K="StyleSource" V="Styles" />
	<E K="UUID" V="0ECC4CEF-5797-4656-A2D5-80BFFEEE35DC" />
</SL>
