icc/Fuji Film 75% (sRGB)/Classic Chrome 75%.costyle
<?xml version="1.0"?>
<SL Engine="1300">
	<E K="ICCProfile" V="Fuji LUT - classic chrome_sRGB (75%).icm" />
	<E K="Name" V="Classic Chrome 75%" />
	<E K="StyleSource" V="Styles" />
	<E K="UUID" V="1721AEF3-3026-4FD2-8694-2647BE15B4FF" />
</SL>
