icc/Fuji Film 75% (sRGB)/Eterna 75%.costyle
<?xml version="1.0"?>
<SL Engine="1300">
	<E K="ICCProfile" V="Fuji LUT - eterna_sRGB (75%).icm" />
	<E K="Name" V="Eterna 75%" />
	<E K="StyleSource" V="Styles" />
	<E K="UUID" V="4182883A-5E1D-4319-9294-3190F001CFE8" />
</SL>
