icc/Fuji Film 75% (sRGB)/Nostalgic Neg 75%.costyle
<?xml version="1.0"?>
<SL Engine="1300">
	<E K="ICCProfile" V="Fuji LUT - nostalgic neg_sRGB (75%).icm" />
	<E K="Name" V="Nostalgic Neg 75%" />
	<E K="StyleSource" V="Styles" />
	<E K="UUID" V="9B8BDD27-E98C-4B74-9511-395BB3F1CB80" />
</SL>
