icc/Fuji Film 75% (sRGB)/Pro Neg Std 75%.costyle
<?xml version="1.0"?>
<SL Engine="1300">
	<E K="ICCProfile" V="Fuji LUT - pro neg std_sRGB (75%).icm" />
	<E K="Name" V="Pro Neg Std 75%" />
	<E K="StyleSource" V="Styles" />
	<E K="UUID" V="AB146E23-2EC4-462A-8DDF-36822DE261AC" />
</SL>
