icc/Fuji Film 75% (sRGB)/Pro Neg Hi 75%.costyle
<?xml version="1.0"?>
<SL Engine="1300">
	<E K="ICCProfile" V="Fuji LUT - pro neg hi_sRGB (75%).icm" />
	<E K="Name" V="Pro Neg Hi 75%" />
	<E K="StyleSource" V="Styles" />
	<E K="UUID" V="5B3B96BA-5FAF-4175-9F53-713BA0AE923F" />
</SL>
