icc/Fuji Film 75% (sRGB)/Provia 75%.costyle
<?xml version="1.0"?>
<SL Engine="1300">
	<E K="ICCProfile" V="Fuji LUT - provia_sRGB (75%).icm" />
	<E K="Name" V="Provia 75%" />
	<E K="StyleSource" V="Styles" />
	<E K="UUID" V="63DA0720-0C0D-49EF-9671-E171A3832443" />
</SL>
