icc/Fuji Film 75% (sRGB)/Reala Ace 75%.costyle
<?xml version="1.0"?>
<SL Engine="1300">
	<E K="ICCProfile" V="Fuji LUT - reala ace_sRGB (75%).icm" />
	<E K="Name" V="Reala Ace 75%" />
	<E K="StyleSource" V="Styles" />
	<E K="UUID" V="71A0221B-9B40-4B3E-A9F9-6A1D6F5D0E61" />
</SL>
