icc/Fuji Film 75% (sRGB)/Velvia 75%.costyle
<?xml version="1.0"?>
<SL Engine="1300">
	<E K="ICCProfile" V="Fuji LUT - velvia_sRGB (75%).icm" />
	<E K="Name" V="Velvia 75%" />
	<E K="StyleSource" V="Styles" />
	<E K="UUID" V="D9270B46-84AA-4985-B2E7-835201406E1D" />
</SL>
