icc/Fuji Film (sRGB)/Astia.costyle
<?xml version="1.0"?>
<SL Engine="1300">
	<E K="ICCProfile" V="Fuji LUT - astia_sRGB.icm" />
	<E K="Name" V="Astia" />
	<E K="StyleSource" V="Styles" />
	<E K="UUID" V="BC66B623-731E-4DD8-AE43-5159CA59D4DB" />
</SL>
