icc/Fuji Film (sRGB)/Bleach Bypass.costyle
<?xml version="1.0"?>
<SL Engine="1300">
	<E K="ICCProfile" V="Fuji LUT - bleach bypass_sRGB.icm" />
	<E K="Name" V="Bleach Bypass" />
	<E K="StyleSource" V="Styles" />
	<E K="UUID" V="B2BBEF61-8550-4163-A116-D5D43BE39CE4" />
</SL>
