icc/Fuji Film (sRGB)/Classic Chrome.costyle
<?xml version="1.0"?>
<SL Engine="1300">
	<E K="ICCProfile" V="Fuji LUT - classic chrome_sRGB.icm" />
	<E K="Name" V="Classic Chrome" />
	<E K="StyleSource" V="Styles" />
	<E K="UUID" V="BA5EE43A-FEFE-41EE-9E8A-F5F7BD7FC602" />
</SL>
