icc/Fuji Film (sRGB)/Classic Neg.costyle
<?xml version="1.0"?>
<SL Engine="1300">
	<E K="ICCProfile" V="Fuji LUT - classic neg_sRGB.icm" />
	<E K="Name" V="Classic Neg" />
	<E K="StyleSource" V="Styles" />
	<E K="UUID" V="DD48F498-722C-4E38-8563-7D1ABC1700FA" />
</SL>
