icc/Fuji Film (sRGB)/Eterna.costyle
<?xml version="1.0"?>
<SL Engine="1300">
	<E K="ICCProfile" V="Fuji LUT - eterna_sRGB.icm" />
	<E K="Name" V="Eterna" />
	<E K="StyleSource" V="Styles" />
	<E K="UUID" V="A36BC56F-0ADF-42FB-8316-E6915514AE73" />
</SL>
