icc/Fuji Film (sRGB)/Nostalgic Neg.costyle
<?xml version="1.0"?>
<SL Engine="1300">
	<E K="ICCProfile" V="Fuji LUT - nostalgic neg_sRGB.icm" />
	<E K="Name" V="Nostalgic Neg" />
	<E K="StyleSource" V="Styles" />
	<E K="UUID" V="E15235E5-129E-4324-B428-29E33C9DDD88" />
</SL>
