icc/Fuji Film (sRGB)/Pro Neg Hi.costyle
<?xml version="1.0"?>
<SL Engine="1300">
	<E K="ICCProfile" V="Fuji LUT - pro neg hi_sRGB.icm" />
	<E K="Name" V="Pro Neg Hi" />
	<E K="StyleSource" V="Styles" />
	<E K="UUID" V="5C487915-F5C8-4048-935F-8DFCC43028C9" />
</SL>
