icc/Fuji Film (sRGB)/Pro Neg Std.costyle
<?xml version="1.0"?>
<SL Engine="1300">
	<E K="ICCProfile" V="Fuji LUT - pro neg std_sRGB.icm" />
	<E K="Name" V="Pro Neg Std" />
	<E K="StyleSource" V="Styles" />
	<E K="UUID" V="FC726218-2C42-4180-8334-33F9BE831EC6" />
</SL>
