icc/Fuji Film (sRGB)/Provia.costyle
<?xml version="1.0"?>
<SL Engine="1300">
	<E K="ICCProfile" V="Fuji LUT - provia_sRGB.icm" />
	<E K="Name" V="Provia" />
	<E K="StyleSource" V="Styles" />
	<E K="UUID" V="811B082E-F58A-4B6C-AD53-845A03CC0436" />
</SL>
