icc/Fuji Film (sRGB)/Reala Ace.costyle
<?xml version="1.0"?>
<SL Engine="1300">
	<E K="ICCProfile" V="Fuji LUT - reala ace_sRGB.icm" />
	<E K="Name" V="Reala Ace" />
	<E K="StyleSource" V="Styles" />
	<E K="UUID" V="AA5F3AEC-8D13-48F2-8153-09B622B429DC" />
</SL>
