icc/Fuji Film (sRGB)/Velvia.costyle
<?xml version="1.0"?>
<SL Engine="1300">
	<E K="ICCProfile" V="Fuji LUT - velvia_sRGB.icm" />
	<E K="Name" V="Velvia" />
	<E K="StyleSource" V="Styles" />
	<E K="UUID" V="8D7BBF37-2945-4E45-9D32-C36A13D58A9A" />
</SL>
